X: 161
T:Sanctus  D'ung aultre amer / Tu lumen
N: Derived from Jos1310-Sanctus_Dung_aultre_amer__Tu_lumen.krn
C: Josquin des Prez
%%abc-version 2.0
%%abcx-abcm2ps-target-version 5.9.1 (29 Sep 2008)
%%abc-creator hum2abc beta
%%abcx-conversion-date 2019/02/12 16:15:46
%%abc-edited-by Jesse Rodin
%%abc-edited-by Will Watson 06/07/2011
%%abcx-initial-encoding-date 2011/06/07/
%%humdrum-veritas 2642209
%%humdrum-veritas-data 2759256636
%%linebreak <none>
%%barnumbers 0
L: 1/4
M: 2/1
Q: 1/2=120
%%staves [1 2 3 4]
V: 1 clef=treble
V: 2 clef=treble-8
V: 3 clef=treble-8
V: 4 clef=bass
K: F
[V:1] G8 | 
[V:2] g8 | 
[V:3] z8 | 
[V:4] z8 | 
[V:1] A4G4 | 
[V:2] f4g4- | 
[V:3] z8 | 
[V:4] z8 | 
[V:1] d6cB | 
[V:2] g2f2d2e2 | 
[V:3] B8 | 
[V:4] G,8 | 
[V:1] A4A4 | 
[V:2] f8- | 
[V:3] c8 | 
[V:4] F,6E,2 | 
[V:1] A4d4- | 
[V:2] f8 | 
[V:3] d8 | 
[V:4] D,2C,2B,,4- | 
[V:1] d4c4 | 
[V:2] B4A4 | 
[V:3] z8 | 
[V:4] B,,4F,4 | 
[V:1] B6AG | 
[V:2] B4G4 | 
[V:3] d8 | 
[V:4] G,8 | 
[V:1] F8 | 
[V:2] A8 | 
[V:3] d8- | 
[V:4] D,8- | 
[V:1] z4F4 | 
[V:2] z4d4 | 
[V:3] d8 | 
[V:4] D,8 | 
[V:1] G4B4 | 
[V:2] e2f2g4- | 
[V:3] z8 | 
[V:4] z8 | 
[V:1] A8 | 
[V:2] g2^fe^f4 | 
[V:3] z8 | 
[V:4] z8 | 
[V:1] G6F2 | 
[V:2] g4G4- | 
[V:3] B8 | 
[V:4] G,8 | 
[V:1] E4D4- | 
[V:2] G2A2B2G2 | 
[V:3] c4d4 | 
[V:4] C,4G,4 | 
[V:1] D4D4 | 
[V:2] A2B2G4 | 
[V:3] d2d2d4- | 
[V:4] F,2G,4F,E, | 
[V:1] D4E4- | 
[V:2] z8 | 
[V:3] d4c4 | 
[V:4] F,2G,2C,4 | 
[V:1] E2D2E4 | 
[V:2] z8 | 
[V:3] d4c4 | 
[V:4] z8 | 
[V:1] F2D2D4- | 
[V:2] z8 | 
[V:3] d8 | 
[V:4] z8 | 
[V:1] D4^C4 | 
[V:2] z8 | 
[V:3] e8 | 
[V:4] z8 | 
[V:1] D8- | 
[V:2] B6AG | 
[V:3] d8 | 
[V:4] G,8 | 
[V:1] D8 | 
[V:2] A4G2g2- | 
[V:3] z4B4 | 
[V:4] F,4G,4 | 
[V:1] z8 | 
[V:2] g2a4f2- | 
[V:3] c4d4 | 
[V:4] E,2F,3E,D,C, | 
[V:1] B8 | 
[V:2] f2g2f2g2 | 
[V:3] d8 | 
[V:4] B,,4B,4- | 
[V:1] c4c4 | 
[V:2] f2g2e4 | 
[V:3] z8 | 
[V:4] B,2A,G,A,4 | 
[V:1] d8 | 
[V:2] d3ef2g2 | 
[V:3] d4d2d2 | 
[V:4] B,8 | 
[V:1] d4d4 | 
[V:2] f2g2d2f2- | 
[V:3] d4d4 | 
[V:4] z4B,4- | 
[V:1] c2c4BA | 
[V:2] f2g2e4 | 
[V:3] z8 | 
[V:4] B,2A,G,A,4 | 
[V:1] G4F4- | 
[V:2] d6e2 | 
[V:3] z8 | 
[V:4] B,4B,,4- | 
[V:1] F2E2C4 | 
[V:2] f2g2e4 | 
[V:3] z8 | 
[V:4] B,,4A,,4 | 
[V:1] D6B,2 | 
[V:2] d6e2 | 
[V:3] z4d4- | 
[V:4] B,,4B,4- | 
[V:1] B,4C4 | 
[V:2] f2g2e2a2 | 
[V:3] d4c4 | 
[V:4] B,4A,4 | 
[V:1] B,4B4- | 
[V:2] g2f4e2 | 
[V:3] d4B4 | 
[V:4] B,4G,4 | 
[V:1] B4A4 | 
[V:2] f8- | 
[V:3] c8 | 
[V:4] F,8 | 
[V:1] B8 ||  
[V:2] f8 ||  
[V:3] B8 ||  
[V:4] B,,8 ||  
[V:1] [M:3/1]B12 | 
[V:2] [M:3/1]g8d2e2 | 
[V:3] [M:3/1]z12 | 
[V:4] [M:3/1]z12 | 
[V:1] A4A4G2c2- | 
[V:2] f3ef2c3de2 | 
[V:3] z12 | 
[V:4] z12 | 
[V:1] c2B2A2G2A4 | 
[V:2] f2g2f2g4^f2 | 
[V:3] z12 | 
[V:4] z12 | 
[V:1] B4G4d4 | 
[V:2] g8z2g2 | 
[V:3] B12 | 
[V:4] G,12 | 
[V:1] c2c4B2A3G | 
[V:2] e2a4g2e2f2 | 
[V:3] c12 | 
[V:4] A,2F,4G,2A,4 | 
[V:1] B4G2A3GFE | 
[V:2] g3fdef3edc | 
[V:3] d12 | 
[V:4] G,6F,2D,E,F,2 | 
[V:1] F2E2D2G4^F2 | 
[V:2] d2c2B2G2A4 | 
[V:3] z4z4d4 | 
[V:4] B,,2C,2D,2_E,2D,4 | 
[V:1] G12- | 
[V:2] G12- | 
[V:3] c2B2c2d2_e4 | 
[V:4] _E,3D,C,2B,,2C,4 | 
[V:1] G12 ||  
[V:2] G12 ||  
[V:3] d12 ||  
[V:4] G,,12 & G,12 ||  
[V:1] [M:3/1]G8A4 | 
[V:2] [M:3/1]g4e4f4 | 
[V:3] [M:3/1]z12 | 
[V:4] [M:3/1]z12 | 
[V:1] G4d6cB | 
[V:2] g6f2d2e2 | 
[V:3] z12 | 
[V:4] z12 | 
[V:1] A4A4A4 | 
[V:2] f6e2c4 | 
[V:3] z12 | 
[V:4] z12 | 
[V:1] d12 | 
[V:2] B4G8 | 
[V:3] B12 | 
[V:4] G,8B,4 | 
[V:1] c4B6AG | 
[V:2] A4B4G4 | 
[V:3] c4d8 | 
[V:4] A,4G,6F,2 | 
[V:1] F12 | 
[V:2] A8B4 | 
[V:3] d12 | 
[V:4] D,8z4 | 
[V:1] z4F4G4 | 
[V:2] A8B4 | 
[V:3] d4d8 | 
[V:4] D,8G,4- | 
[V:1] B4A8 | 
[V:2] G4A4F4 | 
[V:3] d12 | 
[V:4] G,4F,4D,4 | 
[V:1] G6F2E4 | 
[V:2] G6A2c4 | 
[V:3] z12 | 
[V:4] E,4C,8 | 
[V:1] D12 | 
[V:2] B8A4 | 
[V:3] z12 | 
[V:4] G,8F,4 | 
[V:1] D4D4E4- | 
[V:2] B12 | 
[V:3] z12 | 
[V:4] G,12 | 
[V:1] E2D2E4F2D2 | 
[V:2] c8A4 | 
[V:3] z12 | 
[V:4] A,8F,4 | 
[V:1] D8^C4 | 
[V:2] B4G8 | 
[V:3] z12 | 
[V:4] G,4E,8 | 
[V:1] D12- | 
[V:2] A8z4 | 
[V:3] z12 | 
[V:4] D,8z4 | 
[V:1] D12 | 
[V:2] B4B4B4 | 
[V:3] z12 | 
[V:4] G,8G,4 | 
[V:1] z12 | 
[V:2] B12- | 
[V:3] d8d4 | 
[V:4] G,4G,8 | 
[V:1] B12 | 
[V:2] B4G8 | 
[V:3] d4d8 | 
[V:4] G,4B,6A,2 | 
[V:1] c4c8 | 
[V:2] A8G4 | 
[V:3] c6d2e4 | 
[V:4] F,6E,2C,4 | 
[V:1] d8d4 | 
[V:2] B6c2d2e2 | 
[V:3] f4d6c2 | 
[V:4] B,,12- | 
[V:1] d4c2c4BA | 
[V:2] f8F4 | 
[V:3] B8A4 | 
[V:4] B,,4F,8 | 
[V:1] G4F6E2 | 
[V:2] G4A4B4 | 
[V:3] B6c2d4 | 
[V:4] _E,4D,4B,,4 | 
[V:1] C4D6B,2 | 
[V:2] G2A2B2c2d2e2 | 
[V:3] e4f4d4- | 
[V:4] C,4B,,8 | 
[V:1] B,4C4B,4 | 
[V:2] f8g4 | 
[V:3] d4c4d4 | 
[V:4] B,4A,4G,4- | 
[V:1] B8A4 | 
[V:2] e4f6_ed | 
[V:3] B4c8 | 
[V:4] G,4F,8 | 
[V:1] B12 ||  
[V:2] d12 ||  
[V:3] B12 ||  
[V:4] B,,12 ||  
[V:1] [M:3/1]B12 | 
[V:2] [M:3/1]g8d2e2 | 
[V:3] [M:3/1]z12 | 
[V:4] [M:3/1]z12 | 
[V:1] A4A4G2c2- | 
[V:2] f3ef2c3de2 | 
[V:3] z12 | 
[V:4] z12 | 
[V:1] c2B2A2G2A4 | 
[V:2] f2g2f2g4^f2 | 
[V:3] z12 | 
[V:4] z12 | 
[V:1] B4G4d4 | 
[V:2] g8z2g2 | 
[V:3] B12 | 
[V:4] G,12 | 
[V:1] c2c4B2A3G | 
[V:2] e2a4g2e2f2 | 
[V:3] c12 | 
[V:4] A,2F,4G,2A,4 | 
[V:1] B4G2A3GFE | 
[V:2] g3fdef3edc | 
[V:3] d12 | 
[V:4] G,6F,2D,E,F,2 | 
[V:1] F2E2D2G4^F2 | 
[V:2] d2c2B2G2A4 | 
[V:3] z4z4d4 | 
[V:4] B,,2C,2D,2_E,2D,4 | 
[V:1] G12- | 
[V:2] G12- | 
[V:3] c2B2c2d2_e4 | 
[V:4] _E,3D,C,2B,,2C,4 | 
[V:1] G12 ||  
[V:2] G12 ||  
[V:3] d12 ||  
[V:4] G,,12 & G,12 ||  
[V:1] [M:2/1]G8 | 
[V:2] [M:2/1]d8 | 
[V:3] [M:2/1]G8 | 
[V:4] [M:2/1]G,8 | 
[V:1] G8 | 
[V:2] e8 | 
[V:3] c8 | 
[V:4] C,8 | 
[V:1] F8 | 
[V:2] d8 | 
[V:3] A8 | 
[V:4] D,8 | 
[V:1] D8 | 
[V:2] f8- | 
[V:3] B8 | 
[V:4] B,,8 | 
[V:1] C8 | 
[V:2] f8 | 
[V:3] A8 | 
[V:4] F,8 | 
[V:1] F8 | 
[V:2] f8 | 
[V:3] A8 | 
[V:4] D,8 | 
[V:1] G8 | 
[V:2] e8 | 
[V:3] c8 | 
[V:4] C,8 | 
[V:1] B8 | 
[V:2] g8 | 
[V:3] d8 | 
[V:4] G,8 | 
[V:1] A8 | 
[V:2] f8 | 
[V:3] d8 | 
[V:4] D,8 | 
[V:1] G8 | 
[V:2] d8 | 
[V:3] B8 | 
[V:4] G,8 | 
[V:1] !fermata!A8 | 
[V:2] !fermata!f8 | 
[V:3] !fermata!c8 | 
[V:4] !fermata!F,8 | 
[V:1] B8 | 
[V:2] f8 | 
[V:3] d8 | 
[V:4] B,,8 | 
[V:1] c8 | 
[V:2] f8 | 
[V:3] c8 | 
[V:4] F,8 | 
[V:1] A8 | 
[V:2] f8 | 
[V:3] c8 | 
[V:4] F,8 | 
[V:1] B8 | 
[V:2] d8 | 
[V:3] B8 | 
[V:4] G,8 | 
[V:1] G8 | 
[V:2] e8 | 
[V:3] c8 | 
[V:4] C,8 | 
[V:1] A8 | 
[V:2] c8 | 
[V:3] A8 | 
[V:4] F,8 | 
[V:1] F8 | 
[V:2] d8 | 
[V:3] A8 | 
[V:4] D,8 | 
[V:1] !fermata!G8 | 
[V:2] !fermata!e8 | 
[V:3] !fermata!c8 | 
[V:4] !fermata!C,8 | 
[V:1] c8 | 
[V:2] c8 | 
[V:3] e8 | 
[V:4] C,8 | 
[V:1] c8 | 
[V:2] c8 | 
[V:3] e8 | 
[V:4] C,8 | 
[V:1] A8 | 
[V:2] c8 | 
[V:3] f8 | 
[V:4] F,8 | 
[V:1] c8 | 
[V:2] c8 | 
[V:3] f8 | 
[V:4] F,8 | 
[V:1] c8 | 
[V:2] g8 | 
[V:3] e8 | 
[V:4] C,8 | 
[V:1] B8 | 
[V:2] g8 | 
[V:3] d8 | 
[V:4] G,8 | 
[V:1] G8 | 
[V:2] c8 | 
[V:3] G8 | 
[V:4] E,8 | 
[V:1] !fermata!F8 | 
[V:2] !fermata!d8 | 
[V:3] !fermata!A8 | 
[V:4] !fermata!D,8 | 
[V:1] B8 | 
[V:2] f8- | 
[V:3] d8 | 
[V:4] B,,8 | 
[V:1] B8 | 
[V:2] f8 | 
[V:3] d8 | 
[V:4] B,,8 | 
[V:1] c8 | 
[V:2] f8 | 
[V:3] c8 | 
[V:4] F,8 | 
[V:1] A8 | 
[V:2] f8 | 
[V:3] c8 | 
[V:4] F,8 | 
[V:1] B8 | 
[V:2] d8 | 
[V:3] B8 | 
[V:4] G,8 | 
[V:1] G8 | 
[V:2] e8 | 
[V:3] c8 | 
[V:4] C,8 | 
[V:1] A8 | 
[V:2] f8 | 
[V:3] F8 | 
[V:4] F,8 | 
[V:1] G8 | 
[V:2] c8 | 
[V:3] G8 | 
[V:4] E,8 | 
[V:1] ^F8 | 
[V:2] d8 | 
[V:3] A8 | 
[V:4] D,8 | 
[V:1] G8 |]  
[V:2] B8 |]  
[V:3] G8 |]  
[V:4] G,8 |]  



